X: 1
T: Blair Athol
M: 4/4
L: 1/8
R: reel
K: Amin
E2| A2 AB AGEG| ABcd edcB|A2 AB AGE^F| G2 BG dGBG|
A2 AB AGEG| ABcd ecae|gedB GABd| c2 A2 A2:|
e^g| a2 ab agec| ABcd ecBA|g2 ga gedB| GABc dB G2|
a2 ab agec| ABcd ecae|gedB GABd| c2 A2 A2:|
